app/images/Vector.svg

<svg width="80" height="80" viewBox="0 0 80 80" fill="none" xmlns="http://www.w3.org/2000/svg">
<path d="M40.4884 0C23.5288 0 9.78035 13.8464 9.78035 30.9268C9.78035 32.4358 9.88784 33.9202 10.0956 35.3726C10.4764 36.3914 10.9061 37.3858 11.3821 38.3531C15.7906 47.3133 24.1569 53.944 34.1669 55.9328C36.2096 56.3387 38.323 56.5518 40.4885 56.5518C42.3404 56.5518 44.1542 56.3959 45.9181 56.097C56.139 54.3647 64.748 47.815 69.3515 38.8377C69.9251 37.7192 70.4365 36.563 70.881 35.3737C71.0889 33.921 71.1964 32.4362 71.1964 30.9268C71.1964 13.8464 57.448 0 40.4884 0Z" fill="#292D32"/>
<path d="M70.6047 46.746C64.9227 54.3179 56.488 59.6818 46.7917 61.3252C45.7741 61.4977 44.7431 61.629 43.7005 61.7176C43.9951 62.2404 44.3197 62.8066 44.6729 63.4227L50.9526 74.3769C51.7435 75.757 52.4748 77.0332 53.1721 77.9292C53.8551 78.8068 55.1375 80.1577 57.1403 79.9849C59.1684 79.81 60.1888 78.2295 60.695 77.2356C61.2075 76.2292 61.6774 74.8441 62.1822 73.3563L63.0975 70.6595C63.605 69.1643 63.9105 68.2796 64.2089 67.6651C64.3453 67.3844 64.4408 67.2467 64.4935 67.1823C64.5178 67.1527 64.5353 67.1371 64.5353 67.1371L64.5397 67.1336L64.5446 67.1306L64.555 67.1257C64.555 67.1257 64.5771 67.1182 64.6147 67.1119C64.6965 67.098 64.8626 67.0836 65.1722 67.105C65.8498 67.152 66.7632 67.3279 68.3027 67.6328L71.0797 68.1829C72.6113 68.4866 74.0372 68.7693 75.1588 68.8254C76.2666 68.8809 78.1358 68.7812 79.3003 67.0997C80.4502 65.4393 79.9299 63.6453 79.5167 62.6108C79.0949 61.5547 78.3632 60.2787 77.572 58.899L71.0978 47.6053C70.9281 47.309 70.7641 47.0227 70.6047 46.746Z" fill="#292D32"/>
<path d="M36.3504 61.6274C35.2689 61.5085 34.2008 61.3435 33.1481 61.1343C23.5765 59.2326 15.3115 53.6899 9.82814 46.0022C9.51702 46.5325 9.18929 47.1045 8.83636 47.7204L2.42811 58.8989C1.63683 60.2787 0.905164 61.5546 0.48333 62.6108C0.0701457 63.6453 -0.450216 65.4393 0.699708 67.0997C1.8642 68.7812 3.73344 68.8809 4.84122 68.8254C5.96284 68.7693 7.38868 68.4866 8.92034 68.1829L11.6973 67.6328C13.2368 67.3279 14.1501 67.152 14.8278 67.105C15.1374 67.0836 15.3035 67.098 15.3853 67.1119C15.4229 67.1182 15.445 67.1257 15.445 67.1257L15.4553 67.1306L15.4647 67.1371C15.4647 67.1371 15.4822 67.1527 15.5065 67.1823C15.5592 67.2467 15.6547 67.3844 15.7911 67.6651C16.0895 68.2796 16.395 69.1643 16.9025 70.6595L17.8178 73.3563C18.3226 74.8441 18.7925 76.2292 19.305 77.2356C19.8112 78.2295 20.8315 79.81 22.8597 79.9849C24.8625 80.1577 26.1449 78.8068 26.8279 77.9292C27.5252 77.0332 28.2566 75.757 29.0475 74.3769L35.3269 63.4231C35.7007 62.7711 36.0424 62.175 36.3504 61.6274Z" fill="#292D32"/>
</svg>

<svg xmlns="http://www.w3.org/2000/svg" width="80" height="80" fill="none"><path fill="#292D32" d="M40.488 0C23.528 0 9.78 13.846 9.78 30.927c0 1.509.108 2.993.316 4.446.38 1.018.81 2.013 1.286 2.98 4.409 8.96 12.775 15.591 22.785 17.58 2.043.406 4.156.619 6.322.619 1.851 0 3.665-.156 5.43-.455 10.22-1.732 18.829-8.282 23.433-17.26a32.608 32.608 0 0 0 1.529-3.463c.208-1.453.315-2.938.315-4.447C71.196 13.847 57.448 0 40.488 0ZM70.605 46.746c-5.682 7.572-14.117 12.936-23.813 14.58a37.484 37.484 0 0 1-3.092.392c.295.522.62 1.089.973 1.705l6.28 10.954c.79 1.38 1.522 2.656 2.22 3.552.682.878 1.965 2.229 3.967 2.056 2.028-.175 3.049-1.755 3.555-2.75.513-1.006.982-2.39 1.487-3.879l.915-2.697c.508-1.495.813-2.38 1.112-2.994.136-.28.232-.418.284-.483a.44.44 0 0 1 .042-.045l.005-.003.005-.003.01-.005s.022-.008.06-.014c.082-.014.248-.028.557-.007.678.047 1.591.223 3.13.528l2.778.55c1.531.304 2.957.586 4.079.642 1.108.056 2.977-.044 4.141-1.725 1.15-1.66.63-3.455.217-4.49-.422-1.055-1.154-2.331-1.945-3.711l-6.474-11.294-.493-.859ZM36.35 61.627a37.39 37.39 0 0 1-3.202-.493c-9.572-1.901-17.837-7.444-23.32-15.132-.311.53-.639 1.102-.992 1.718L2.428 58.9C1.637 60.279.905 61.555.483 62.61.07 63.645-.45 65.439.7 67.1c1.164 1.681 3.033 1.78 4.141 1.725 1.122-.056 2.548-.338 4.08-.642l2.776-.55c1.54-.305 2.453-.481 3.13-.528.31-.021.476-.007.558.007.038.006.06.014.06.014l.01.005.01.006s.017.016.042.045c.052.065.148.202.284.483.299.615.604 1.5 1.111 2.994l.916 2.697c.505 1.488.974 2.873 1.487 3.88.506.993 1.526 2.574 3.555 2.749 2.003.173 3.285-1.178 3.968-2.056.697-.896 1.429-2.172 2.22-3.552l6.279-10.954c.374-.652.715-1.248 1.023-1.796Z"/></svg>
